X:4
T:March On
M:C
L:1/8
K:G
%%MIDI channel 1
%%MIDI program 72
%%MIDI transpose 8
%%MIDI grace 1/8
%%MIDI ratio 3 1
GA|BGBd g2fe|d2de d2cB|cBcd ecBG|A2 A>A A2GA|BGBd g2fe|
d2de d2cB|Aedc B2A2|G2 G>G G2::GA|BGBG BdcB|AFAF ABcA|BGBd gdBG|
A2 A>A A2 GA|BGBd g2fe|d2de d2cB|Aedc B2A2|G2G>GG2:|
